X: 29071
T: Aberlour House
C:Alex Troup
B:RSCDS 29-7
R:strathspey
Z:2009 John Chambers <jc:trillian.mit.edu>
M:C
L:1/16
K:Bb
DC \
| "Bb"B,3D F3D B3c d3c | "Eb"BAGF "Bb"B3D  "F"C4 C2DC \
| "Bb"B,3D F3D "Gm"B3c d3c | "Eb"BAGF "F7"d3c "Bb"B4 B2 :|
f2 \
| "Bb"edcB f3B "Eb"b3B "Bb"f3B | "Bb"d3B fgfd "F7"c4 c2f2 \
| "Bb"edcB f3B b3B "Bb"f3B | "Eb"GFED "F7"cdfd "Bb"B4 B2 |]
f2 \
| "Bb"edcB f3B "Eb"b3B "Bb"f3B | "Bb"dBdf "Eb"gfed "F"c4 "F7"c2dc \
| "Bb"B3F d3f "Eb"gfga b3g | "F"f3d "F7"[d'3d3][c'c] "Bb"[b4B4] [b2B2] |]
%%center Book29/29071-AberlourHouse_Bb-JC.abc

%%sep 2 1 500
%%sep 1 1 500

